X: 305551
M: 2/4
L: 1/16
K: D
d2(Bd) |\
fdcd AGFE | F2D2 d2(cd) | fdcd g2f2 | e4 d2 (cd) |\
fdcd AGFE | F2D2 fdec | dBcA  E2^G2 | A4 :|
|: AdAF |\


